public/2024-summer/clouds_pc.svg

<svg width="1440" height="2160" viewBox="0 0 1440 2160" fill="none" xmlns="http://www.w3.org/2000/svg">
<g clip-path="url(#clip0_98_136)">
<path d="M282 1952.5C282 1972.11 254.018 1988 219.5 1988C184.982 1988 157 1972.11 157 1952.5C157 1932.89 184.982 1917 219.5 1917C254.018 1917 282 1932.89 282 1952.5Z" fill="#F7E8D2"/>
<path d="M557 1988C557 2006.23 535.734 2021 509.5 2021C483.266 2021 462 2006.23 462 1988C462 1969.77 483.266 1955 509.5 1955C535.734 1955 557 1969.77 557 1988Z" fill="#F7E8D2"/>
<path d="M594 1964C594 1977.25 577.211 1988 556.5 1988C535.789 1988 519 1977.25 519 1964C519 1950.75 535.789 1940 556.5 1940C577.211 1940 594 1950.75 594 1964Z" fill="#F7E8D2"/>
<path d="M207 1926C207 1959.69 173.869 1987 133 1987C92.1309 1987 59 1959.69 59 1926C59 1892.31 92.1309 1865 133 1865C173.869 1865 207 1892.31 207 1926Z" fill="#F7E8D2"/>
<path d="M257 1895.5C257 1923.39 230.809 1946 198.5 1946C166.191 1946 140 1923.39 140 1895.5C140 1867.61 166.191 1845 198.5 1845C230.809 1845 257 1867.61 257 1895.5Z" fill="#F7E8D2"/>
<path d="M330 1911.5C330 1930.55 305.152 1946 274.5 1946C243.848 1946 219 1930.55 219 1911.5C219 1892.45 243.848 1877 274.5 1877C305.152 1877 330 1892.45 330 1911.5Z" fill="#F7E8D2"/>
<path d="M373 1945C373 1962.67 347.48 1977 316 1977C284.52 1977 259 1962.67 259 1945C259 1927.33 284.52 1913 316 1913C347.48 1913 373 1927.33 373 1945Z" fill="#F7E8D2"/>
<path d="M1143 1804.5C1143 1841.78 1102.93 1872 1053.5 1872C1004.07 1872 964 1841.78 964 1804.5C964 1767.22 1004.07 1737 1053.5 1737C1102.93 1737 1143 1767.22 1143 1804.5Z" fill="#F7E8D2"/>
<path d="M1178 1753C1178 1781.72 1151.58 1805 1119 1805C1086.42 1805 1060 1781.72 1060 1753C1060 1724.28 1086.42 1701 1119 1701C1151.58 1701 1178 1724.28 1178 1753Z" fill="#F7E8D2"/>
<path d="M1245 1832C1245 1854.09 1215 1872 1178 1872C1141 1872 1111 1854.09 1111 1832C1111 1809.91 1141 1792 1178 1792C1215 1792 1245 1809.91 1245 1832Z" fill="#F7E8D2"/>
<path d="M1256 1784.5C1256 1810.73 1233.17 1832 1205 1832C1176.83 1832 1154 1810.73 1154 1784.5C1154 1758.27 1176.83 1737 1205 1737C1233.17 1737 1256 1758.27 1256 1784.5Z" fill="#F7E8D2"/>
<path d="M1334 1821.5C1334 1839.45 1309.82 1854 1280 1854C1250.18 1854 1226 1839.45 1226 1821.5C1226 1803.55 1250.18 1789 1280 1789C1309.82 1789 1334 1803.55 1334 1821.5Z" fill="#F7E8D2"/>
<path d="M1333.78 1816.96C1332.17 1837.06 1300.3 1850.9 1262.59 1847.88C1224.88 1844.87 1195.61 1826.13 1197.22 1806.04C1198.83 1785.94 1230.7 1772.1 1268.41 1775.12C1306.12 1778.13 1335.39 1796.87 1333.78 1816.96Z" fill="#F7E8D2"/>
<path d="M441 1441.5C441 1478.78 400.929 1509 351.5 1509C302.071 1509 262 1478.78 262 1441.5C262 1404.22 302.071 1374 351.5 1374C400.929 1374 441 1404.22 441 1441.5Z" fill="#E7E7E7"/>
<path d="M476 1390C476 1418.72 449.585 1442 417 1442C384.415 1442 358 1418.72 358 1390C358 1361.28 384.415 1338 417 1338C449.585 1338 476 1361.28 476 1390Z" fill="#E7E7E7"/>
<path d="M543 1469C543 1491.09 513.003 1509 476 1509C438.997 1509 409 1491.09 409 1469C409 1446.91 438.997 1429 476 1429C513.003 1429 543 1446.91 543 1469Z" fill="#E7E7E7"/>
<path d="M554 1421.5C554 1447.73 531.167 1469 503 1469C474.833 1469 452 1447.73 452 1421.5C452 1395.27 474.833 1374 503 1374C531.167 1374 554 1395.27 554 1421.5Z" fill="#E7E7E7"/>
<path d="M632 1458.5C632 1476.45 607.823 1491 578 1491C548.177 1491 524 1476.45 524 1458.5C524 1440.55 548.177 1426 578 1426C607.823 1426 632 1440.55 632 1458.5Z" fill="#E7E7E7"/>
<path d="M631.782 1453.96C630.175 1474.06 598.301 1487.9 560.59 1484.88C522.879 1481.87 493.611 1463.13 495.218 1443.04C496.825 1422.94 528.699 1409.1 566.41 1412.12C604.121 1415.13 633.389 1433.87 631.782 1453.96Z" fill="#E7E7E7"/>
<path d="M1393 1042.5C1393 1079.78 1352.93 1110 1303.5 1110C1254.07 1110 1214 1079.78 1214 1042.5C1214 1005.22 1254.07 975 1303.5 975C1352.93 975 1393 1005.22 1393 1042.5Z" fill="#F7E8D2"/>
<path d="M1428 991C1428 1019.72 1401.58 1043 1369 1043C1336.42 1043 1310 1019.72 1310 991C1310 962.281 1336.42 939 1369 939C1401.58 939 1428 962.281 1428 991Z" fill="#F7E8D2"/>
<path d="M1495 1070C1495 1092.09 1465 1110 1428 1110C1391 1110 1361 1092.09 1361 1070C1361 1047.91 1391 1030 1428 1030C1465 1030 1495 1047.91 1495 1070Z" fill="#F7E8D2"/>
<path d="M1506 1022.5C1506 1048.73 1483.17 1070 1455 1070C1426.83 1070 1404 1048.73 1404 1022.5C1404 996.266 1426.83 975 1455 975C1483.17 975 1506 996.266 1506 1022.5Z" fill="#F7E8D2"/>
<path d="M1584 1059.5C1584 1077.45 1559.82 1092 1530 1092C1500.18 1092 1476 1077.45 1476 1059.5C1476 1041.55 1500.18 1027 1530 1027C1559.82 1027 1584 1041.55 1584 1059.5Z" fill="#F7E8D2"/>
<path d="M1583.78 1054.96C1582.17 1075.06 1550.3 1088.9 1512.59 1085.88C1474.88 1082.87 1445.61 1064.13 1447.22 1044.04C1448.83 1023.94 1480.7 1010.1 1518.41 1013.12C1556.12 1016.13 1585.39 1034.87 1583.78 1054.96Z" fill="#F7E8D2"/>
<path d="M147 744.5C147 781.779 106.929 812 57.5 812C8.07051 812 -32 781.779 -32 744.5C-32 707.221 8.07051 677 57.5 677C106.929 677 147 707.221 147 744.5Z" fill="#F7E8D2"/>
<path d="M182 693C182 721.719 155.585 745 123 745C90.4152 745 64 721.719 64 693C64 664.281 90.4152 641 123 641C155.585 641 182 664.281 182 693Z" fill="#F7E8D2"/>
<path d="M249 772C249 794.091 219.003 812 182 812C144.997 812 115 794.091 115 772C115 749.909 144.997 732 182 732C219.003 732 249 749.909 249 772Z" fill="#F7E8D2"/>
<path d="M260 724.5C260 750.734 237.167 772 209 772C180.833 772 158 750.734 158 724.5C158 698.266 180.833 677 209 677C237.167 677 260 698.266 260 724.5Z" fill="#F7E8D2"/>
<path d="M338 761.5C338 779.449 313.823 794 284 794C254.177 794 230 779.449 230 761.5C230 743.551 254.177 729 284 729C313.823 729 338 743.551 338 761.5Z" fill="#F7E8D2"/>
<path d="M337.782 756.962C336.175 777.056 304.301 790.9 266.59 787.884C228.879 784.867 199.611 766.133 201.218 746.038C202.825 725.944 234.699 712.1 272.41 715.116C310.121 718.133 339.389 736.868 337.782 756.962Z" fill="#F7E8D2"/>
<path d="M1261 280.5C1261 317.779 1220.93 348 1171.5 348C1122.07 348 1082 317.779 1082 280.5C1082 243.221 1122.07 213 1171.5 213C1220.93 213 1261 243.221 1261 280.5Z" fill="#E7E7E7"/>
<path d="M1296 229C1296 257.719 1269.58 281 1237 281C1204.42 281 1178 257.719 1178 229C1178 200.281 1204.42 177 1237 177C1269.58 177 1296 200.281 1296 229Z" fill="#E7E7E7"/>
<path d="M1363 308C1363 330.091 1333 348 1296 348C1259 348 1229 330.091 1229 308C1229 285.909 1259 268 1296 268C1333 268 1363 285.909 1363 308Z" fill="#E7E7E7"/>
<path d="M1374 260.5C1374 286.734 1351.17 308 1323 308C1294.83 308 1272 286.734 1272 260.5C1272 234.266 1294.83 213 1323 213C1351.17 213 1374 234.266 1374 260.5Z" fill="#E7E7E7"/>
<path d="M1452 297.5C1452 315.449 1427.82 330 1398 330C1368.18 330 1344 315.449 1344 297.5C1344 279.551 1368.18 265 1398 265C1427.82 265 1452 279.551 1452 297.5Z" fill="#E7E7E7"/>
<path d="M1451.78 292.962C1450.17 313.056 1418.3 326.9 1380.59 323.884C1342.88 320.867 1313.61 302.133 1315.22 282.038C1316.83 261.944 1348.7 248.1 1386.41 251.116C1424.12 254.133 1453.39 272.868 1451.78 292.962Z" fill="#E7E7E7"/>
</g>
<defs>
<clipPath id="clip0_98_136">
<rect width="1440" height="2160" fill="white"/>
</clipPath>
</defs>
</svg>

<svg xmlns="http://www.w3.org/2000/svg" width="1440" height="2160" fill="none"><g clip-path="url(#a)"><path fill="#F7E8D2" d="M282 1952.5c0 19.6-28 35.5-62.5 35.5s-62.5-15.9-62.5-35.5 28-35.5 62.5-35.5 62.5 15.9 62.5 35.5ZM557 1988c0 18.2-21.3 33-47.5 33s-47.5-14.8-47.5-33 21.3-33 47.5-33 47.5 14.8 47.5 33Z"/><path fill="#F7E8D2" d="M594 1964c0 13.3-16.8 24-37.5 24s-37.5-10.8-37.5-24c0-13.3 16.8-24 37.5-24s37.5 10.8 37.5 24ZM207 1926c0 33.7-33.1 61-74 61s-74-27.3-74-61 33.1-61 74-61 74 27.3 74 61Z"/><path fill="#F7E8D2" d="M257 1895.5c0 27.9-26.2 50.5-58.5 50.5s-58.5-22.6-58.5-50.5 26.2-50.5 58.5-50.5 58.5 22.6 58.5 50.5Z"/><path fill="#F7E8D2" d="M330 1911.5c0 19-24.8 34.5-55.5 34.5s-55.5-15.5-55.5-34.5 24.8-34.5 55.5-34.5 55.5 15.5 55.5 34.5Z"/><path fill="#F7E8D2" d="M373 1945c0 17.7-25.5 32-57 32s-57-14.3-57-32 25.5-32 57-32 57 14.3 57 32ZM1143 1804.5c0 37.3-40 67.5-89.5 67.5-49.4 0-89.5-30.2-89.5-67.5s40-67.5 89.5-67.5c49.4 0 89.5 30.2 89.5 67.5Z"/><path fill="#F7E8D2" d="M1178 1753c0 28.7-26.4 52-59 52s-59-23.3-59-52 26.4-52 59-52 59 23.3 59 52Z"/><path fill="#F7E8D2" d="M1245 1832c0 22-30 40-67 40s-67-18-67-40 30-40 67-40 67 18 67 40Z"/><path fill="#F7E8D2" d="M1256 1784.5c0 26.2-22.8 47.5-51 47.5s-51-21.3-51-47.5 22.8-47.5 51-47.5 51 21.3 51 47.5Z"/><path fill="#F7E8D2" d="M1334 1821.5c0 18-24.2 32.5-54 32.5s-54-14.5-54-32.5 24.2-32.5 54-32.5 54 14.5 54 32.5Z"/><path fill="#F7E8D2" d="M1333.8 1817c-1.6 20-33.5 33.9-71.2 30.9s-67-21.8-65.4-41.9c1.6-20 33.5-33.9 71.2-30.9s67 21.8 65.4 41.9Z"/><path fill="#E7E7E7" d="M441 1441.5c0 37.3-40 67.5-89.5 67.5-49.4 0-89.5-30.2-89.5-67.5s40-67.5 89.5-67.5c49.4 0 89.5 30.2 89.5 67.5Z"/><path fill="#E7E7E7" d="M476 1390c0 28.7-26.4 52-59 52s-59-23.3-59-52 26.4-52 59-52 59 23.3 59 52Z"/><path fill="#E7E7E7" d="M543 1469c0 22-30 40-67 40s-67-18-67-40 30-40 67-40 67 18 67 40Z"/><path fill="#E7E7E7" d="M554 1421.5c0 26.2-22.8 47.5-51 47.5s-51-21.3-51-47.5 22.8-47.5 51-47.5 51 21.3 51 47.5Z"/><path fill="#E7E7E7" d="M632 1458.5c0 18-24.2 32.5-54 32.5s-54-14.5-54-32.5 24.2-32.5 54-32.5 54 14.5 54 32.5Z"/><path fill="#E7E7E7" d="M631.8 1454c-1.6 20-33.5 33.9-71.2 30.9s-67-21.8-65.4-41.9c1.6-20 33.5-33.9 71.2-30.9s67 21.8 65.4 41.9Z"/><path fill="#F7E8D2" d="M1393 1042.5c0 37.3-40 67.5-89.5 67.5-49.4 0-89.5-30.2-89.5-67.5s40-67.5 89.5-67.5c49.4 0 89.5 30.2 89.5 67.5Z"/><path fill="#F7E8D2" d="M1428 991c0 28.7-26.4 52-59 52s-59-23.3-59-52 26.4-52 59-52 59 23.3 59 52Z"/><path fill="#F7E8D2" d="M1495 1070c0 22-30 40-67 40s-67-18-67-40 30-40 67-40 67 18 67 40Z"/><path fill="#F7E8D2" d="M1506 1022.5c0 26.2-22.8 47.5-51 47.5s-51-21.3-51-47.5 22.8-47.5 51-47.5 51 21.3 51 47.5Z"/><path fill="#F7E8D2" d="M1584 1059.5c0 18-24.2 32.5-54 32.5s-54-14.5-54-32.5 24.2-32.5 54-32.5 54 14.5 54 32.5Z"/><path fill="#F7E8D2" d="M1583.8 1055c-1.6 20-33.5 33.9-71.2 30.9s-67-21.8-65.4-41.9c1.6-20 33.5-33.9 71.2-30.9s67 21.8 65.4 41.9ZM147 744.5c0 37.3-40 67.5-89.5 67.5C8.1 812-32 781.8-32 744.5S8 677 57.5 677c49.4 0 89.5 30.2 89.5 67.5Z"/><path fill="#F7E8D2" d="M182 693c0 28.7-26.4 52-59 52s-59-23.3-59-52 26.4-52 59-52 59 23.3 59 52Z"/><path fill="#F7E8D2" d="M249 772c0 22-30 40-67 40s-67-18-67-40 30-40 67-40 67 18 67 40Z"/><path fill="#F7E8D2" d="M260 724.5c0 26.2-22.8 47.5-51 47.5s-51-21.3-51-47.5 22.8-47.5 51-47.5 51 21.3 51 47.5Z"/><path fill="#F7E8D2" d="M338 761.5c0 18-24.2 32.5-54 32.5s-54-14.6-54-32.5c0-18 24.2-32.5 54-32.5s54 14.6 54 32.5Z"/><path fill="#F7E8D2" d="M337.8 757c-1.6 20-33.5 33.9-71.2 30.9s-67-21.8-65.4-41.9c1.6-20 33.5-33.9 71.2-30.9s67 21.8 65.4 41.9Z"/><path fill="#E7E7E7" d="M1261 280.5c0 37.3-40 67.5-89.5 67.5-49.4 0-89.5-30.2-89.5-67.5s40-67.5 89.5-67.5c49.4 0 89.5 30.2 89.5 67.5Z"/><path fill="#E7E7E7" d="M1296 229c0 28.7-26.4 52-59 52s-59-23.3-59-52 26.4-52 59-52 59 23.3 59 52Z"/><path fill="#E7E7E7" d="M1363 308c0 22-30 40-67 40s-67-18-67-40 30-40 67-40 67 18 67 40Z"/><path fill="#E7E7E7" d="M1374 260.5c0 26.2-22.8 47.5-51 47.5s-51-21.3-51-47.5 22.8-47.5 51-47.5 51 21.3 51 47.5Z"/><path fill="#E7E7E7" d="M1452 297.5c0 18-24.2 32.5-54 32.5s-54-14.6-54-32.5c0-18 24.2-32.5 54-32.5s54 14.6 54 32.5Z"/><path fill="#E7E7E7" d="M1451.8 293c-1.6 20-33.5 33.9-71.2 30.9s-67-21.8-65.4-41.9c1.6-20 33.5-33.9 71.2-30.9s67 21.8 65.4 41.9Z"/></g><defs><clipPath id="a"><path fill="#fff" d="M0 0h1440v2160H0z"/></clipPath></defs></svg>
